contributed-vectors/changes.svg

<svg xmlns="http://www.w3.org/2000/svg" xmlns:xlink="http://www.w3.org/1999/xlink" viewBox="0 0 192 192"><path fill="#87BEFF" d="M.2 192.3V.3"/><image overflow="visible" width="241" height="241" xlink:href="30E0AF75.jpg" transform="translate(-274.333 -179)"/><path fill="#88BFFF" d="M147.2 7.9c-34.1-.1-68.2-.1-102.3 0-8.9.1-12.8 4.5-12.8 13.4 0 49.4.2 98.8-.2 148.2-.1 11.5 5.6 15.4 15.4 15.3 19.7-.2 39.4 0 59.2-.1 1.9 0 3.9.7 5.6-.9v-33.5c0-9.6 4.7-14.2 14.5-14.3 10.8-.1 21.6-.1 32.5-.1.3.1.6.1.9.2 0-.5.1-.9.1-1.4 0-37.8.1-75.7.1-113.5-.1-8.8-4.1-13.2-13-13.3zM64.1 40.1H128c0 2.7 0 5.5.1 8.2h-64v-8.2zm0 56.2c0-2.7 0-5.5.1-8.2h47.9c0 2.7 0 5.4.1 8.2H64.1zM120 80.4H72.2c-8.5 0-8.5 0-8-8.4h63.9c.4 8.4.4 8.4-8.1 8.4zm7.9-15.8H64.3c-.7-2.8-.4-5.7-.1-8.6h63.9c.2 2.8.5 5.7-.2 8.6z"/><path fill="#FFF" d="M64 40h63.9v8.2H64zM64 72.1h63.9v8.2H64zM64.1 56.3H128v8.2H64.1zM64 87.6h48v8.2H64z"/><path fill="#65E1D4" d="M112.1 183.8v-33.5c0-9.6 4.7-14.2 14.5-14.3 10.8-.1 21.6-.1 32.5-.1.3.1.6 0 .9 0-12.8 14.1-26.8 27.2-40.1 40.8-2.6 2.5-4.6 5.4-7.8 7.1z"/></svg>

<?xml version="1.0" encoding="utf-8"?>
<!-- Generator: Adobe Illustrator 17.1.0, SVG Export Plug-In . SVG Version: 6.00 Build 0)  -->
<!DOCTYPE svg PUBLIC "-//W3C//DTD SVG 1.1//EN" "http://www.w3.org/Graphics/SVG/1.1/DTD/svg11.dtd">
<svg version="1.1" id="Слой_1" xmlns="http://www.w3.org/2000/svg" xmlns:xlink="http://www.w3.org/1999/xlink" x="0px" y="0px"
	 viewBox="0 0 192 192" enable-background="new 0 0 192 192" xml:space="preserve">
<line fill="#87BEFF" x1="0.2" y1="192.3" x2="0.2" y2="0.3"/>
<image overflow="visible" width="241" height="241" xlink:href="30E0AF75.jpg"  transform="matrix(1 0 0 1 -274.3333 -179)">
</image>
<g>
	<path fill="#88BFFF" d="M147.2,7.9C113.1,7.8,79,7.8,44.9,7.9C36,8,32.1,12.4,32.1,21.3c0,49.4,0.2,98.8-0.2,148.2
		c-0.1,11.5,5.6,15.4,15.4,15.3c19.7-0.2,39.4,0,59.2-0.1c1.9,0,3.9,0.7,5.6-0.9c0-11.2,0-22.4,0-33.5c0-9.6,4.7-14.2,14.5-14.3
		c10.8-0.1,21.6-0.1,32.5-0.1c0,0,0,0,0,0c0.3,0.1,0.6,0.1,0.9,0.2c0-0.5,0.1-0.9,0.1-1.4c0-37.8,0.1-75.7,0.1-113.5
		C160.1,12.4,156.1,8,147.2,7.9z M64.1,40.1c21.3,0,42.6,0,63.9,0c0,2.7,0,5.5,0.1,8.2c-21.3,0-42.7,0-64,0
		C64.1,45.5,64.1,42.8,64.1,40.1z M64.1,96.3c0-2.7,0-5.5,0.1-8.2c16,0,31.9,0,47.9,0c0,2.7,0,5.4,0.1,8.2
		C96.1,96.3,80.1,96.3,64.1,96.3z M120,80.4c-15.9,0-31.9,0-47.8,0c-8.5,0-8.5,0-8-8.4c21.3,0,42.6,0,63.9,0
		C128.5,80.4,128.5,80.4,120,80.4z M127.9,64.6C127.9,64.6,127.9,64.6,127.9,64.6c-21.2,0-42.4,0-63.6,0c-0.7-2.8-0.4-5.7-0.1-8.6
		c21.3,0,42.6,0,63.9,0C128.3,58.8,128.6,61.7,127.9,64.6z"/>
	<rect x="64" y="40" fill="#FFFFFF" width="63.9" height="8.2"/>
	<rect x="64" y="72.1" fill="#FFFFFF" width="63.9" height="8.2"/>
	<rect x="64.1" y="56.3" fill="#FFFFFF" width="63.9" height="8.2"/>
	<rect x="64" y="87.6" fill="#FFFFFF" width="48" height="8.2"/>
	<path fill="#65E1D4" d="M112.1,183.8c0-11.2,0-22.4,0-33.5c0-9.6,4.7-14.2,14.5-14.3c10.8-0.1,21.6-0.1,32.5-0.1
		c0.3,0.1,0.6,0,0.9,0c-12.8,14.1-26.8,27.2-40.1,40.8C117.3,179.2,115.3,182.1,112.1,183.8z"/>
</g>
</svg>
